X: 2755
T: Banks Of The Ilen, The
R: reel
M: 4/4
K: Dmajor
|:FDFA d2fd|d2fd ecAG|FDFA d2fd|1 ecAF G2AG:|2 ecAF G3e||
|:f2af g2fg|abag fdd2|f2af g2fg|abaf g2fg|
agfa gfeg|fedf ecAG|FDFA d2fd|ecAF G3e:|

